X: 25
T: STORRERS
S: "Community Dances Manual 6", EFDSS, Jack Hamilton ed., 1981 p.3
R: reel
Z: 2010 John Chambers <jc:trillian.mit.edu>
M: 4/4
L: 1/8
K: A
"A"|: ed |\
"A"c2A2 AcBA | "E"G2E2 E2FE | "B7"^D2B2 BcBA | "E7"G2E2 E2ed |
"A"c2A2 AcBA | "E7"GABc defg | "A"aecA "E7"Gfed | "A"c2A2 A2 :|
"B"|: ce |\
"A"fece agfe | "A"fec2 c2ce | "A"fece agfe | "Bm"d2B2 "E7"B2ce |
"A"fcea agfe | "D"fefg agfe | "Bm"dcBA "E7"Gfed | "A"c2A2 A2 :|

%%sep 2 1 500
%%sep 1 1 500

